X:6
T:Branle du petit Limousin
O:Limousin
Z:Transcrit et/ou corrig? par Michel BELLON - 2007-04-27
Z:Pour toute observation mailto:galouvielle@free.fr
M:2/4
L:1/4
K:G
V:1
GG/>A/ | B B/>B/ | A A/>A/ | GD | G G/>A/ | Bd | B/G/ A/A/ | G2 ||
w:Dan-sons lou bran-le, lou bran-le, lou bran-le, dan-sons le branle du pe-tit li-mou-sin.
GGGLdG | GGGLddG | GGGGLdG | GGGLddG | GGGGLdG |
w:un pe-tit sau-ta un pe-ti tour-ni-qua les mains sur la t?-ta les mains sur l'?-pau-la les mains sur la han-cha
GGGGLddG | GGGGLddG |]
w:les mains sur la ge-nouil-la les mains sur la che-vil-la
V:2
x2  | x2  | x2  | x2 | x2 | x2  | x2 | x2 ||
x5 | x6 |  x6 |  x6 |  
x6 |  x7 |  x7 |]
<end>
<start>
